public/sports/hockey.svg

<svg width="14" height="14" viewBox="0 0 14 14" fill="none" xmlns="http://www.w3.org/2000/svg">
<g clip-path="url(#clip0_155_19)">
<path d="M10.9098 2.59247L10.9098 2.59247V2.59082C10.9098 2.01328 10.7565 1.5466 10.4292 1.2141C10.101 0.880808 9.63562 0.725 9.05762 0.725C8.62574 0.725 8.17765 0.798574 7.71397 0.943768C7.25181 1.08848 6.78433 1.29336 6.31159 1.55754C5.84033 1.82089 5.37652 2.12553 4.92016 2.47126C4.46294 2.81764 4.029 3.20082 3.61835 3.6207C3.20904 4.03921 2.8272 4.47394 2.47287 4.9249C2.1169 5.37796 1.81121 5.8433 1.55616 6.32095C1.30192 6.79707 1.10004 7.26313 0.951159 7.71906C0.800945 8.17909 0.725 8.63003 0.725 9.07129C0.725 9.64914 0.880752 10.1129 1.21494 10.4368C1.54753 10.7592 2.0139 10.9098 2.59082 10.9098C3.01829 10.9098 3.46412 10.8361 3.92764 10.691C4.3898 10.5463 4.85727 10.3414 5.33001 10.0772C5.80146 9.81377 6.26318 9.50899 6.71519 9.16306C7.16721 8.81713 7.60056 8.43677 8.01525 8.02208C8.42993 7.60739 8.81252 7.17182 9.16293 6.71536C9.51345 6.25877 9.81839 5.79685 10.0775 5.32957C10.3371 4.86139 10.5395 4.39635 10.6842 3.93447C10.8292 3.47124 10.905 3.02371 10.9098 2.59247ZM4.92583 13.275L4.92583 13.275H4.92871C5.36055 13.275 5.8108 13.2014 6.27879 13.0564C6.74573 12.9116 7.21353 12.7066 7.68212 12.4422C8.14847 12.179 8.6119 11.8746 9.07242 11.5292C9.53413 11.1829 9.97035 10.8021 10.3811 10.3867C10.7908 9.97238 11.173 9.53725 11.5276 9.08135C11.8832 8.62413 12.1886 8.15917 12.4436 7.68643C12.6981 7.21427 12.9002 6.74548 13.0491 6.28009C13.199 5.81181 13.275 5.36112 13.275 4.92871C13.275 4.68237 13.2412 4.4446 13.1731 4.21597C13.1018 3.97667 12.9723 3.76219 12.7881 3.57309L12.7881 3.57309L12.7871 3.57202L11.748 2.52612L11.4985 2.27496L11.4916 2.62892C11.4828 3.08278 11.4035 3.55658 11.2521 4.0508C11.1004 4.54612 10.888 5.04498 10.6144 5.5474C10.3404 6.05049 10.0166 6.54525 9.64278 7.03164C9.26852 7.51863 8.86267 7.98086 8.42518 8.41835C7.9877 8.85583 7.52314 9.26401 7.03149 9.64291C6.5406 10.0212 6.04844 10.3424 5.55508 10.6071C5.06115 10.872 4.56109 11.0872 4.05489 11.253C3.55293 11.4173 3.07935 11.496 2.63331 11.4916L2.26438 11.488L2.52612 11.748L3.57202 12.7871L3.57201 12.7871L3.57313 12.7882C3.75817 12.9682 3.97049 13.0951 4.20913 13.1662C4.43706 13.2341 4.67613 13.2702 4.92583 13.275ZM9.05078 0.15C9.39127 0.15 9.71514 0.20016 10.0231 0.299926C10.3228 0.397014 10.5945 0.563985 10.8388 0.803835C10.8389 0.803979 10.8391 0.804122 10.8392 0.804266L13.1967 3.16173C13.4362 3.40122 13.603 3.67042 13.7001 3.97005C13.7998 4.27784 13.85 4.60397 13.85 4.94922C13.85 5.40669 13.7752 5.88417 13.624 6.38221C13.4723 6.88203 13.26 7.38304 12.9864 7.88529C12.7122 8.38872 12.3882 8.88839 12.0141 9.38426C11.64 9.87998 11.2321 10.3487 10.7904 10.7904C10.3485 11.2323 9.8819 11.6403 9.39057 12.0144C8.89962 12.3883 8.40029 12.7121 7.89261 12.9862C7.38562 13.2599 6.88216 13.4723 6.38221 13.624C5.88417 13.7752 5.40669 13.85 4.94922 13.85C4.6135 13.85 4.2894 13.7999 3.97631 13.6999C3.67207 13.6027 3.40086 13.4358 3.16173 13.1967L0.803332 10.8383C0.56384 10.5988 0.396989 10.3296 0.299926 10.0299C0.200222 9.72216 0.15 9.39603 0.15 9.05078C0.15 8.59331 0.224765 8.11583 0.375954 7.61779C0.527845 7.11744 0.738168 6.61369 1.00748 6.10648C1.27668 5.59948 1.60014 5.10068 1.97819 4.61012C2.35704 4.11851 2.76749 3.65167 3.20958 3.20958C3.65149 2.76767 4.1181 2.35968 4.60943 1.98555C5.10038 1.61171 5.59971 1.28789 6.10739 1.01383C6.61438 0.740143 7.11784 0.527725 7.61779 0.375954C8.11583 0.224765 8.59331 0.15 9.05078 0.15Z" fill="#F0F3FF" stroke="black" stroke-width="0.3"/>
</g>
<defs>
<clipPath id="clip0_155_19">
<rect width="14" height="14" fill="white"/>
</clipPath>
</defs>
</svg>

<svg xmlns="http://www.w3.org/2000/svg" width="14" height="14" fill="none"><g clip-path="url(#a)"><path fill="#F0F3FF" stroke="#000" stroke-width=".3" d="M10.91 2.6c0-.59-.15-1.05-.48-1.39-.33-.33-.8-.48-1.37-.48-.43 0-.88.07-1.35.21-.46.15-.93.35-1.4.62a12 12 0 0 0-2.7 2.06c-.4.42-.78.85-1.14 1.3a9.52 9.52 0 0 0-1.52 2.8c-.15.46-.22.91-.22 1.35 0 .58.15 1.04.48 1.37.34.32.8.47 1.38.47.43 0 .87-.07 1.34-.22.46-.14.93-.35 1.4-.61a11.55 11.55 0 0 0 2.69-2.06 13.3 13.3 0 0 0 2.06-2.69c.26-.47.46-.93.6-1.4.15-.46.22-.9.23-1.34ZM4.93 13.27c.43 0 .88-.08 1.35-.22a7.2 7.2 0 0 0 1.4-.62 12.83 12.83 0 0 0 4.76-4.75c.26-.48.46-.94.6-1.41.16-.47.24-.92.24-1.35 0-.25-.04-.49-.1-.71-.08-.24-.2-.46-.4-.65l-1.03-1.04-.25-.26v.36c-.02.45-.1.93-.25 1.42-.15.5-.36 1-.64 1.5a14.17 14.17 0 0 1-5.06 5.06c-.49.26-.99.48-1.5.64-.5.17-.97.25-1.42.24h-.37l.27.26 1.04 1.04c.19.18.4.3.64.38.23.06.47.1.72.1ZM9.05.14c.34 0 .67.05.97.15.3.1.57.26.82.5l2.36 2.36c.24.24.4.51.5.81.1.3.15.63.15.98 0 .46-.07.93-.23 1.43a8 8 0 0 1-.63 1.5 12.11 12.11 0 0 1-2.2 2.91 13.8 13.8 0 0 1-2.9 2.2c-.5.27-1 .48-1.5.63-.5.16-.98.23-1.44.23-.34 0-.66-.05-.97-.15a2 2 0 0 1-.82-.5L.8 10.84a2 2 0 0 1-.5-.81c-.1-.3-.15-.63-.15-.98 0-.46.07-.93.23-1.43.15-.5.36-1 .63-1.51s.59-1 .97-1.5A14.47 14.47 0 0 1 4.6 1.99c.49-.38.99-.7 1.5-.98A8.2 8.2 0 0 1 7.6.38c.5-.16.98-.23 1.44-.23Z"/></g><defs><clipPath id="a"><path fill="#fff" d="M0 0h14v14H0z"/></clipPath></defs></svg>
